X: 1
T: Matt Peoples'
R: reel
M: 4/4
L: 1/8
K: Dmaj
FABc d2 BA | d2 BA FE E2 | FABc dBBA | f2 fe dBBA :|
| ad d2 adbd | adde feef | ad d2 a2 af | egfe dBBA |
ad d2 adbd | adde fe e2 | faaf b2 af | egfe dBBA |


Tune 2980	Setting 25428

